X: 1392
T: Mutrıbâ Sevdâsını Halkın
C: Ahmet Avni Konuk
O: Turkey
F: http://compmusic.upf.edu/node/140
N: beyati--kupe--duyek--mutriba--ahmet_avni_konuk
N: makam= beyati
N: form= kupe
N: usul= duyek = 8/4
M: 8/4
L: 1/16
K: C _2/4B   
Q: 1/4=57
%%MIDI tuningsystem comma53
z4 B2c2 B4 c4 d8 f3e d2e2  | d4 d2f2 e4 d4 d2c4.B2 c3B A4  | 
w:  Mut *  rı bâ  sev  |  *  dâ *  *  sı nı  *  *  hal  | 
z4 A4 f4 f2e2 f8 f3e f2g2  | f2e2 e2f2 e2f2 e2d2 d2e2 {f}e2d2 d6z2  | 
w:  kın  *  Be *  yâ tî   |  *  *  ta *  *  *  ze *  ler    | 
z4 A2B2 A4 B4 c2d2 c2B2 c4 d4  | z4 g8 a4 a2g4a2 g2f2 f2e2  | 
w:  Â *  *  teş_ i  *  *  *  aş  |  kı  de vâm_ *  *  ı   | 
e2d2 d2e2 d4 e4 g3^2/4f e2d2 c4 B4  | \
w:  *  *  şevk_ *  *  i le  *  *  *  yel  | 
B2A2 A8 e4 e2d2 c2B2 A6z2  | 
w:  *  *  pâ ze ler    | 
|


